cc-by-sa/knowledge/modules/history_of_type/lessons/modern_type/images/GFKhistoftype4.1.svg

<svg xmlns="http://www.w3.org/2000/svg" width="1920" height="1080" fill="none"><path fill="#1A73E8" d="M1047.51 239.195h73.93v205.09l64.31 1.762 63.89-26.762V228.269h-202.13v10.926Z"/><path fill="#3C4043" d="M270.935 443.5c38.76 0 72.165 8.245 100.215 24.735 28.22 16.49 49.81 39.185 64.77 68.085 15.13 28.73 22.695 61.54 22.695 98.43 0 27.71-4.505 53.21-13.515 76.5-9.01 23.29-21.845 43.52-38.505 60.69-16.49 17.17-36.295 30.515-59.415 40.035-22.95 9.35-48.365 14.025-76.245 14.025H119.72v-4.845h45.9v-372.81h-45.9V443.5h151.215ZM226.82 821.155h44.115c21.76 0 40.12-5.1 55.08-15.3 14.96-10.37 26.945-24.31 35.955-41.82 9.01-17.68 15.47-37.655 19.38-59.925 4.08-22.27 6.12-45.39 6.12-69.36s-2.295-47.09-6.885-69.36c-4.42-22.27-11.305-42.16-20.655-59.67-9.35-17.68-21.42-31.62-36.21-41.82-14.62-10.37-32.215-15.555-52.785-15.555H226.82v372.81Zm333.5-310.59c-9.86 0-18.275-3.485-25.245-10.455-6.97-6.97-10.455-15.47-10.455-25.5s3.485-18.445 10.455-25.245c6.97-6.97 15.385-10.455 25.245-10.455 10.03 0 18.53 3.485 25.5 10.455 6.97 6.8 10.455 15.215 10.455 25.245 0 10.03-3.485 18.53-10.455 25.5-6.8 6.97-15.3 10.455-25.5 10.455Zm28.05 80.835v229.755h32.64V826H499.375v-4.845h32.64v-224.91h-32.64V591.4h88.995Zm178.353 239.445c-18.36 0-35.7-4.845-52.02-14.535-16.32-9.69-29.58-23.63-39.78-41.82-10.2-18.19-15.3-40.035-15.3-65.535s5.1-47.345 15.3-65.535c10.2-18.36 23.46-32.385 39.78-42.075 16.32-9.86 33.66-14.79 52.02-14.79 21.93 0 39.695 7.905 53.295 23.715 13.77 15.64 22.695 37.485 26.775 65.535v-227.46h-32.64V443.5h89.25v377.655h32.385V826h-88.995v-84.15c-4.08 28.22-12.92 50.15-26.52 65.79-13.6 15.47-31.45 23.205-53.55 23.205Zm11.475-8.925c12.07 0 23.29-4.25 33.66-12.75 10.37-8.67 18.785-21.335 25.245-37.995 6.46-16.83 9.69-37.57 9.69-62.22 0-24.82-3.23-45.645-9.69-62.475-6.46-16.83-14.875-29.495-25.245-37.995-10.37-8.67-21.59-13.005-33.66-13.005-12.24 0-22.355 4.59-30.345 13.77-7.82 9.18-13.685 22.27-17.595 39.27-3.91 16.83-5.865 36.975-5.865 60.435 0 23.29 1.955 43.435 5.865 60.435 3.91 16.83 9.775 29.835 17.595 39.015 7.99 9.01 18.105 13.515 30.345 13.515Zm315.302 9.18c-24.65 0-45.99-5.61-64.01-16.83-17.85-11.22-31.703-26.095-41.563-44.625-9.69-18.53-14.535-38.845-14.535-60.945s4.845-42.415 14.535-60.945c9.86-18.53 23.713-33.405 41.563-44.625 18.02-11.22 39.36-16.83 64.01-16.83 24.65 0 45.9 5.61 63.75 16.83 18.02 11.22 31.87 26.095 41.56 44.625 9.69 18.53 14.54 38.845 14.54 60.945s-4.85 42.415-14.54 60.945-23.54 33.405-41.56 44.625c-17.85 11.22-39.1 16.83-63.75 16.83Zm0-4.845c11.9 0 21.59-3.57 29.07-10.71 7.65-7.14 13.51-16.49 17.59-28.05 4.08-11.73 6.89-24.48 8.42-38.25 1.53-13.77 2.29-27.285 2.29-40.545 0-13.43-.76-26.945-2.29-40.545-1.53-13.77-4.34-26.435-8.42-37.995-4.08-11.73-9.94-21.165-17.59-28.305-7.48-7.14-17.17-10.71-29.07-10.71-12.07 0-21.93 3.57-29.58 10.71-7.48 7.14-13.26 16.575-17.34 28.305-4.08 11.56-6.89 24.225-8.42 37.995a407.252 407.252 0 0 0-2.04 40.545c0 13.26.68 26.775 2.04 40.545 1.53 13.77 4.34 26.52 8.42 38.25 4.08 11.56 9.86 20.91 17.34 28.05 7.65 7.14 17.51 10.71 29.58 10.71ZM1339.11 591.4v229.755h29.33V826h-118.07v-4.845h32.9v-224.91h-32.9V591.4h88.74Zm155.55 71.91v157.845h32.64V826h-118.06v-4.845h29.32v-153c0-14.28-.59-26.69-1.78-37.23-1.19-10.71-3.83-18.955-7.91-24.735-3.91-5.95-10.11-8.925-18.61-8.925-14.28 0-26.1 3.825-35.45 11.475-9.18 7.48-16.4 17.17-21.67 29.07-5.27 11.73-8.93 24.225-10.97 37.485-2.04 13.09-3.06 25.33-3.06 36.72l-3.57 1.53c0-11.9 1.02-25.16 3.06-39.78 2.21-14.62 6.29-28.56 12.24-41.82 5.95-13.26 14.71-24.14 26.27-32.64 11.73-8.67 27.03-13.005 45.9-13.005 19.55 0 34.42 3.315 44.62 9.945 10.37 6.63 17.43 15.81 21.17 27.54 3.91 11.56 5.86 24.735 5.86 39.525Zm190.27 167.79c-22.78 0-43.26-4.76-61.45-14.28-18.02-9.69-32.39-23.63-43.1-41.82-10.54-18.36-15.81-40.46-15.81-66.3 0-25.84 5.1-47.855 15.3-66.045 10.2-18.36 24.23-32.3 42.08-41.82 17.85-9.69 38.16-14.535 60.94-14.535 25.16 0 45.56 5.015 61.2 15.045 15.64 10.03 27.12 23.205 34.43 39.525 7.31 16.15 10.96 33.49 10.96 52.02h-190.74v-4.845h127.76c0-9.86-.51-20.4-1.53-31.62-.85-11.22-2.72-21.76-5.61-31.62s-7.23-17.935-13.01-24.225c-5.78-6.29-13.6-9.435-23.46-9.435-10.88 0-19.89 3.23-27.03 9.69-6.97 6.46-12.49 15.215-16.57 26.265s-6.97 23.46-8.67 37.23c-1.53 13.6-2.3 27.71-2.3 42.33 0 15.3.85 30.09 2.55 44.37 1.87 14.11 5.1 26.69 9.69 37.74 4.76 11.05 11.22 19.89 19.38 26.52 8.33 6.46 18.96 9.69 31.88 9.69 24.31 0 44.45-6.63 60.43-19.89 15.98-13.43 27.12-30.005 33.41-49.725h5.35c-6.63 21.42-18.7 39.44-36.21 54.06-17.34 14.45-40.63 21.675-69.87 21.675Z"/><circle cx="1154.65" cy="282.298" r="163.649" stroke="#FF6D7F" stroke-width="10"/><circle cx="865.069" cy="457.905" r="66.595" stroke="#FF6D7F" stroke-width="7"/></svg>

<svg width="1920" height="1080" viewBox="0 0 1920 1080" fill="none" xmlns="http://www.w3.org/2000/svg">
<path d="M1047.51 239.195H1121.44V444.285L1185.75 446.047L1249.64 419.285V228.269H1047.51V239.195Z" fill="#1A73E8"/>
<path d="M270.935 443.5C309.695 443.5 343.1 451.745 371.15 468.235C399.37 484.725 420.96 507.42 435.92 536.32C451.05 565.05 458.615 597.86 458.615 634.75C458.615 662.46 454.11 687.96 445.1 711.25C436.09 734.54 423.255 754.77 406.595 771.94C390.105 789.11 370.3 802.455 347.18 811.975C324.23 821.325 298.815 826 270.935 826H119.72V821.155H165.62V448.345H119.72V443.5H270.935ZM226.82 821.155H270.935C292.695 821.155 311.055 816.055 326.015 805.855C340.975 795.485 352.96 781.545 361.97 764.035C370.98 746.355 377.44 726.38 381.35 704.11C385.43 681.84 387.47 658.72 387.47 634.75C387.47 610.78 385.175 587.66 380.585 565.39C376.165 543.12 369.28 523.23 359.93 505.72C350.58 488.04 338.51 474.1 323.72 463.9C309.1 453.53 291.505 448.345 270.935 448.345H226.82V821.155ZM560.32 510.565C550.46 510.565 542.045 507.08 535.075 500.11C528.105 493.14 524.62 484.64 524.62 474.61C524.62 464.58 528.105 456.165 535.075 449.365C542.045 442.395 550.46 438.91 560.32 438.91C570.35 438.91 578.85 442.395 585.82 449.365C592.79 456.165 596.275 464.58 596.275 474.61C596.275 484.64 592.79 493.14 585.82 500.11C579.02 507.08 570.52 510.565 560.32 510.565ZM588.37 591.4V821.155H621.01V826H499.375V821.155H532.015V596.245H499.375V591.4H588.37ZM766.723 830.845C748.363 830.845 731.023 826 714.703 816.31C698.383 806.62 685.123 792.68 674.923 774.49C664.723 756.3 659.623 734.455 659.623 708.955C659.623 683.455 664.723 661.61 674.923 643.42C685.123 625.06 698.383 611.035 714.703 601.345C731.023 591.485 748.363 586.555 766.723 586.555C788.653 586.555 806.418 594.46 820.018 610.27C833.788 625.91 842.713 647.755 846.793 675.805V448.345H814.153V443.5H903.403V821.155H935.788V826H846.793V741.85C842.713 770.07 833.873 792 820.273 807.64C806.673 823.11 788.823 830.845 766.723 830.845ZM778.198 821.92C790.268 821.92 801.488 817.67 811.858 809.17C822.228 800.5 830.643 787.835 837.103 771.175C843.563 754.345 846.793 733.605 846.793 708.955C846.793 684.135 843.563 663.31 837.103 646.48C830.643 629.65 822.228 616.985 811.858 608.485C801.488 599.815 790.268 595.48 778.198 595.48C765.958 595.48 755.843 600.07 747.853 609.25C740.033 618.43 734.168 631.52 730.258 648.52C726.348 665.35 724.393 685.495 724.393 708.955C724.393 732.245 726.348 752.39 730.258 769.39C734.168 786.22 740.033 799.225 747.853 808.405C755.843 817.415 765.958 821.92 778.198 821.92ZM1093.5 831.1C1068.85 831.1 1047.51 825.49 1029.49 814.27C1011.64 803.05 997.787 788.175 987.927 769.645C978.237 751.115 973.392 730.8 973.392 708.7C973.392 686.6 978.237 666.285 987.927 647.755C997.787 629.225 1011.64 614.35 1029.49 603.13C1047.51 591.91 1068.85 586.3 1093.5 586.3C1118.15 586.3 1139.4 591.91 1157.25 603.13C1175.27 614.35 1189.12 629.225 1198.81 647.755C1208.5 666.285 1213.35 686.6 1213.35 708.7C1213.35 730.8 1208.5 751.115 1198.81 769.645C1189.12 788.175 1175.27 803.05 1157.25 814.27C1139.4 825.49 1118.15 831.1 1093.5 831.1ZM1093.5 826.255C1105.4 826.255 1115.09 822.685 1122.57 815.545C1130.22 808.405 1136.08 799.055 1140.16 787.495C1144.24 775.765 1147.05 763.015 1148.58 749.245C1150.11 735.475 1150.87 721.96 1150.87 708.7C1150.87 695.27 1150.11 681.755 1148.58 668.155C1147.05 654.385 1144.24 641.72 1140.16 630.16C1136.08 618.43 1130.22 608.995 1122.57 601.855C1115.09 594.715 1105.4 591.145 1093.5 591.145C1081.43 591.145 1071.57 594.715 1063.92 601.855C1056.44 608.995 1050.66 618.43 1046.58 630.16C1042.5 641.72 1039.69 654.385 1038.16 668.155C1036.8 681.755 1036.12 695.27 1036.12 708.7C1036.12 721.96 1036.8 735.475 1038.16 749.245C1039.69 763.015 1042.5 775.765 1046.58 787.495C1050.66 799.055 1056.44 808.405 1063.92 815.545C1071.57 822.685 1081.43 826.255 1093.5 826.255ZM1339.11 591.4V821.155H1368.44V826H1250.37V821.155H1283.27V596.245H1250.37V591.4H1339.11ZM1494.66 663.31V821.155H1527.3V826H1409.24V821.155H1438.56V668.155C1438.56 653.875 1437.97 641.465 1436.78 630.925C1435.59 620.215 1432.95 611.97 1428.87 606.19C1424.96 600.24 1418.76 597.265 1410.26 597.265C1395.98 597.265 1384.16 601.09 1374.81 608.74C1365.63 616.22 1358.41 625.91 1353.14 637.81C1347.87 649.54 1344.21 662.035 1342.17 675.295C1340.13 688.385 1339.11 700.625 1339.11 712.015L1335.54 713.545C1335.54 701.645 1336.56 688.385 1338.6 673.765C1340.81 659.145 1344.89 645.205 1350.84 631.945C1356.79 618.685 1365.55 607.805 1377.11 599.305C1388.84 590.635 1404.14 586.3 1423.01 586.3C1442.56 586.3 1457.43 589.615 1467.63 596.245C1478 602.875 1485.06 612.055 1488.8 623.785C1492.71 635.345 1494.66 648.52 1494.66 663.31ZM1684.93 831.1C1662.15 831.1 1641.67 826.34 1623.48 816.82C1605.46 807.13 1591.09 793.19 1580.38 775C1569.84 756.64 1564.57 734.54 1564.57 708.7C1564.57 682.86 1569.67 660.845 1579.87 642.655C1590.07 624.295 1604.1 610.355 1621.95 600.835C1639.8 591.145 1660.11 586.3 1682.89 586.3C1708.05 586.3 1728.45 591.315 1744.09 601.345C1759.73 611.375 1771.21 624.55 1778.52 640.87C1785.83 657.02 1789.48 674.36 1789.48 692.89H1598.74V688.045H1726.5C1726.5 678.185 1725.99 667.645 1724.97 656.425C1724.12 645.205 1722.25 634.665 1719.36 624.805C1716.47 614.945 1712.13 606.87 1706.35 600.58C1700.57 594.29 1692.75 591.145 1682.89 591.145C1672.01 591.145 1663 594.375 1655.86 600.835C1648.89 607.295 1643.37 616.05 1639.29 627.1C1635.21 638.15 1632.32 650.56 1630.62 664.33C1629.09 677.93 1628.32 692.04 1628.32 706.66C1628.32 721.96 1629.17 736.75 1630.87 751.03C1632.74 765.14 1635.97 777.72 1640.56 788.77C1645.32 799.82 1651.78 808.66 1659.94 815.29C1668.27 821.75 1678.9 824.98 1691.82 824.98C1716.13 824.98 1736.27 818.35 1752.25 805.09C1768.23 791.66 1779.37 775.085 1785.66 755.365H1791.01C1784.38 776.785 1772.31 794.805 1754.8 809.425C1737.46 823.875 1714.17 831.1 1684.93 831.1Z" fill="#3C4043"/>
<circle cx="1154.65" cy="282.298" r="163.649" stroke="#FF6D7F" stroke-width="10"/>
<circle cx="865.069" cy="457.905" r="66.5947" stroke="#FF6D7F" stroke-width="7"/>
</svg>
